src/images/advantages/ice crema.svg

<svg width="50" height="51" viewBox="0 0 50 51" fill="none" xmlns="http://www.w3.org/2000/svg">
<g filter="url(#filter0_d_11713_4655)">
<path d="M25.1219 7.1205C25.2123 7.36151 25.393 8.52887 25.393 8.89038C25.393 9.78661 25.0616 10.6226 24.4516 11.2778C23.947 11.8201 23.4424 12.1213 22.2298 12.6109C20.8817 13.1607 20.3244 13.4921 19.6918 14.1172C19.0516 14.7573 18.675 15.4577 18.5395 16.2787C18.3888 17.1749 18.5395 17.8075 18.9989 18.169L19.2324 18.3498L18.8633 18.5833C18.1177 19.0728 16.7621 20.2251 16.5286 20.5791C16.0767 21.2569 16.1219 21.8895 16.634 22.1456L16.875 22.2661L16.6039 22.5222C16.1972 22.9063 16.1144 23.1699 16.1746 23.8628C16.2123 24.3222 16.1972 24.5707 16.0918 24.9473C15.9637 25.4368 15.9637 25.4444 16.1294 25.7908C16.2951 26.1297 16.7621 26.559 17.1838 26.7397C17.3872 26.8301 17.3947 26.8603 17.4399 27.5531C17.4625 27.9523 17.5001 29.2251 17.5303 30.3849C17.5529 31.5448 17.6056 32.6067 17.6508 32.7347C17.6884 32.8703 17.8315 33.051 17.9596 33.1414C18.3964 33.4427 18.6976 33.7665 18.8934 34.1431C19.1119 34.5724 19.3529 35.6268 20.0834 39.272L20.5955 41.8326L20.9119 42.1339C21.5144 42.7289 22.6667 43 24.5646 43C26.47 43 27.6073 42.7364 28.2098 42.1414L28.5336 41.8326L29.0006 39.4603C30.0324 34.2711 30.1227 33.9849 30.9286 33.3448C31.1771 33.1414 31.4181 32.8929 31.4633 32.7799C31.516 32.6519 31.5688 31.6653 31.6064 30.1741C31.6365 28.8485 31.6817 27.5381 31.7119 27.2594L31.757 26.7548L32.2466 26.3858C32.8642 25.9113 33.1052 25.482 33.1052 24.8192C33.0976 24.036 32.5855 23.1774 31.6516 22.4092L31.2073 22.0477L31.4257 21.7389C32.337 20.4812 31.7646 18.7414 30.07 17.5816L29.5579 17.2276L29.7462 17.0318C30.5821 16.1356 30.7177 13.4619 30.0173 11.6017C29.5955 10.4946 28.6315 9.28954 27.4491 8.40084C26.8692 7.96402 25.2725 7 25.1294 7C25.0993 7 25.0993 7.05272 25.1219 7.1205ZM27.2909 9.74895C27.6901 10.1406 28.1721 10.6753 28.3604 10.9464C29.4826 12.513 29.7688 14.4787 29.0909 15.9247C28.8198 16.5121 28.0064 17.3858 27.2533 17.9054C26.101 18.7038 23.5102 20.0444 21.7027 20.7824C18.7955 21.9649 17.1085 22.1908 16.9127 21.4151C16.8374 21.1213 17.0558 20.8879 17.9821 20.2703C18.8181 19.6979 22.5688 16.9113 22.6365 16.7983C22.6591 16.7682 22.275 16.9414 21.793 17.1824C20.1587 18.0109 19.383 17.8527 19.4206 16.7004C19.4432 15.8644 20.0457 14.9155 20.8817 14.3732C21.0926 14.2377 21.7478 13.9364 22.3503 13.6954C24.3311 12.8971 24.9336 12.4904 25.6039 11.4887C26.0031 10.8937 26.4399 9.79414 26.47 9.3272C26.4775 9.16151 26.5077 9.03347 26.5303 9.03347C26.5529 9.03347 26.8918 9.35732 27.2909 9.74895ZM29.347 18.3046C29.8968 18.6134 30.4692 19.1406 30.7177 19.5548C31.1545 20.3004 30.9286 21.046 29.9872 21.995C28.9629 23.0343 27.2156 24.0285 25.2951 24.6611C23.5252 25.241 21.8307 25.5121 19.4056 25.595L17.8993 25.6477L18.8784 25.708C20.1437 25.7908 22.5914 25.7155 23.5403 25.5649C26.0633 25.1657 28.2098 24.3674 29.7462 23.2678C30.0926 23.0192 30.4541 22.8159 30.552 22.8159C30.8006 22.8159 31.8851 23.8552 32.1035 24.292C32.224 24.5406 32.2541 24.7213 32.2315 24.9623C32.1185 25.964 30.8985 26.4987 27.9537 26.8527C24.3537 27.282 19.6466 26.8603 17.6357 25.9339C16.6868 25.4971 16.5286 25.2485 16.7696 24.5858C16.8449 24.3749 16.86 24.1264 16.8298 23.7724C16.7922 23.3054 16.7997 23.2452 16.9654 23.072C17.342 22.6653 17.9746 22.4318 20.2943 21.8444C21.1077 21.6335 22.2148 21.3021 22.742 21.1063C24.0223 20.6393 26.4248 19.4268 27.5395 18.6812C28.5863 17.9883 28.737 17.9582 29.347 18.3046ZM19.3453 27.523C20.9269 27.9824 22.3278 28.118 24.9336 28.0653C26.8918 28.0276 28.0968 27.9071 29.8365 27.5983C30.1905 27.5381 30.4993 27.4854 30.537 27.4854C30.6198 27.4854 30.5972 30.3774 30.5068 31.1381C30.4089 31.9439 30.1905 32.569 29.957 32.7197C29.716 32.8778 28.511 33.0435 26.8993 33.1339C23.593 33.3146 20.1964 33.1339 19.142 32.7121C18.5696 32.4787 18.5093 32.1774 18.5018 29.3833C18.5018 27.523 18.5169 27.2669 18.6148 27.3046C18.675 27.3272 19.0064 27.4251 19.3453 27.523ZM21.1303 33.9247C21.6725 33.9925 22.26 34.0603 22.4407 34.0828L22.7646 34.1205L22.4784 34.4368C22.1093 34.836 21.5445 35.6343 21.3411 36.041C21.1077 36.5079 21.0324 36.5381 20.6859 36.3498L20.3922 36.1841L20.2265 35.1598C20.1361 34.6025 20.0382 34.0678 20.0156 33.9774C19.9478 33.7816 19.8801 33.7816 21.1303 33.9247ZM29.1587 33.8418C29.1587 33.8569 29.1211 34.0527 29.0834 34.2711C29.0382 34.4971 28.8499 35.7247 28.6616 37.005C28.2775 39.6787 28.0215 40.9364 27.788 41.3582C27.4642 41.923 26.6884 42.2544 25.4307 42.3598C24.9411 42.3975 23.465 42.2996 23.3821 42.2243C23.3219 42.1565 24.6173 40.5523 24.8206 40.4469C25.0089 40.3414 25.0616 40.3565 25.7018 40.6879C26.4474 41.0795 26.824 41.1397 26.824 40.8912C26.824 40.6427 26.6282 40.4017 26.1462 40.0703C25.7018 39.754 25.5437 39.5732 25.5437 39.3623C25.5437 39.3021 25.7621 38.9632 26.0257 38.6092C26.2893 38.2552 26.6734 37.6904 26.8692 37.3515L27.2382 36.7414L27.5771 36.7866C28.2625 36.8845 28.4432 36.877 28.4206 36.7264C28.4056 36.651 28.2775 36.4326 28.1344 36.2519C27.9914 36.0636 27.8784 35.8753 27.8784 35.8377C27.8784 35.6946 28.5788 34.3766 28.8047 34.0979C29.0006 33.8569 29.1587 33.7364 29.1587 33.8418ZM24.4516 34.4444C24.8282 34.6929 26.2441 35.9205 26.3344 36.0711C26.3721 36.1389 24.9185 38.4134 24.6324 38.7372C24.6022 38.7749 24.4441 38.6996 24.2859 38.5791C24.1278 38.451 23.5403 38.0444 22.9755 37.6753L21.9587 37.005L22.5688 35.9732C23.6533 34.1582 23.6307 34.1883 23.8642 34.1883C23.9847 34.1883 24.2483 34.3013 24.4516 34.4444ZM27.306 34.7155C27.0424 35.0393 26.824 35.2427 26.7336 35.2427C26.5378 35.2427 26.2215 35.0695 25.6868 34.6778L25.2424 34.354L26.1311 34.3013C26.6131 34.2787 27.0801 34.2485 27.1629 34.2335C27.7654 34.1356 27.7654 34.1431 27.306 34.7155ZM21.6123 38.3381C22.3052 38.6092 23.4801 39.2494 23.819 39.5356C24.06 39.7314 24.06 39.7464 23.9621 39.9874C23.9018 40.123 23.6985 40.4845 23.4951 40.7933C23.2993 41.0946 23.0734 41.4711 22.9905 41.6293C22.7495 42.0962 22.6742 42.1339 22.1771 41.9983C21.6424 41.8402 21.3562 41.569 21.2056 41.0795C21.0022 40.3941 20.6784 38.4586 20.716 38.1573C20.7311 38.0444 21.0474 38.1121 21.6123 38.3381Z" fill="black"/>
</g>
<defs>
<filter id="filter0_d_11713_4655" x="-4" y="0" width="58" height="58" filterUnits="userSpaceOnUse" color-interpolation-filters="sRGB">
<feFlood flood-opacity="0" result="BackgroundImageFix"/>
<feColorMatrix in="SourceAlpha" type="matrix" values="0 0 0 0 0 0 0 0 0 0 0 0 0 0 0 0 0 0 127 0" result="hardAlpha"/>
<feOffset dy="4"/>
<feGaussianBlur stdDeviation="2"/>
<feComposite in2="hardAlpha" operator="out"/>
<feColorMatrix type="matrix" values="0 0 0 0 0 0 0 0 0 0 0 0 0 0 0 0 0 0 0.25 0"/>
<feBlend mode="normal" in2="BackgroundImageFix" result="effect1_dropShadow_11713_4655"/>
<feBlend mode="normal" in="SourceGraphic" in2="effect1_dropShadow_11713_4655" result="shape"/>
</filter>
</defs>
</svg>

<svg width="50" height="51" fill="none"><g filter="url(#a)"><path d="M25.122 7.12c.09.242.271 1.409.271 1.77a3.47 3.47 0 0 1-.941 2.388c-.505.542-1.01.843-2.222 1.333-1.348.55-1.906.881-2.538 1.506-.64.64-1.017 1.34-1.152 2.162-.151.896 0 1.529.459 1.89l.233.18-.369.234c-.745.49-2.1 1.642-2.334 1.996-.452.678-.407 1.31.105 1.567l.241.12-.271.256c-.407.384-.49.648-.43 1.34.038.46.023.709-.082 1.085-.128.49-.128.497.037.844.166.339.633.768 1.055.949.203.09.21.12.256.813.022.4.06 1.672.09 2.832.023 1.16.076 2.222.12 2.35.038.135.181.316.31.406.436.302.738.626.933 1.002.219.43.46 1.484 1.19 5.129l.513 2.56.316.302c.602.595 1.755.866 3.653.866 1.905 0 3.042-.264 3.645-.859l.324-.308L29 39.46c1.031-5.189 1.122-5.475 1.928-6.115.248-.204.49-.452.534-.565.053-.128.106-1.115.143-2.606.03-1.325.076-2.636.106-2.915l.045-.504.49-.37c.617-.474.858-.903.858-1.566-.007-.783-.52-1.642-1.453-2.41l-.445-.361.219-.31c.911-1.257.339-2.997-1.356-4.156l-.512-.354.188-.196c.836-.896.972-3.57.271-5.43-.421-1.107-1.386-2.312-2.568-3.201C26.87 7.964 25.272 7 25.13 7c-.03 0-.03.053-.007.12ZM27.29 9.75c.4.392.881.926 1.07 1.197 1.122 1.567 1.408 3.533.73 4.979-.271.587-1.085 1.46-1.838 1.98-1.152.799-3.743 2.14-5.55 2.877-2.907 1.183-4.595 1.409-4.79.633-.076-.294.143-.527 1.07-1.145.835-.572 4.586-3.359 4.654-3.472.022-.03-.362.143-.844.384-1.634.829-2.41.67-2.372-.482.022-.836.625-1.784 1.46-2.327.212-.135.867-.437 1.47-.678 1.98-.798 2.583-1.205 3.253-2.206.4-.595.836-1.695.866-2.162.008-.165.038-.294.06-.294.023 0 .362.324.76.716Zm2.056 8.556c.55.308 1.122.836 1.37 1.25.438.745.212 1.491-.73 2.44-1.024 1.04-2.771 2.034-4.692 2.666-1.77.58-3.464.851-5.89.934l-1.506.053.98.06c1.265.083 3.712.008 4.661-.143 2.523-.4 4.67-1.198 6.206-2.297.347-.249.708-.452.806-.452.249 0 1.333 1.04 1.551 1.476.121.249.151.43.128.67-.113 1.002-1.333 1.537-4.277 1.89-3.6.43-8.307.008-10.318-.918-.95-.437-1.107-.686-.866-1.348.075-.211.09-.46.06-.814-.038-.467-.03-.527.135-.7.377-.407 1.01-.64 3.33-1.228.813-.21 1.92-.542 2.447-.738 1.28-.467 3.683-1.68 4.797-2.425 1.047-.693 1.198-.723 1.808-.376Zm-10.002 9.218c1.582.46 2.983.595 5.589.542 1.958-.037 3.163-.158 4.902-.467.355-.06.663-.113.701-.113.083 0 .06 2.892-.03 3.653-.098.806-.317 1.431-.55 1.582-.241.158-1.446.324-3.058.414-3.306.18-6.703 0-7.757-.422-.572-.233-.633-.535-.64-3.329 0-1.86.015-2.116.113-2.078.06.022.391.12.73.218Zm1.785 6.402c.543.068 1.13.135 1.31.158l.325.038-.287.316c-.369.399-.934 1.197-1.137 1.604-.233.467-.309.497-.655.309l-.294-.166-.165-1.024a28.822 28.822 0 0 0-.211-1.183c-.068-.195-.136-.195 1.114-.052Zm8.029-.083c0 .015-.038.21-.076.43-.045.225-.233 1.453-.421 2.733-.384 2.674-.64 3.931-.874 4.353-.324.565-1.1.896-2.357 1.002-.49.038-1.966-.06-2.049-.136-.06-.067 1.235-1.672 1.439-1.777.188-.106.24-.09.88.24.746.393 1.123.453 1.123.204 0-.248-.196-.49-.678-.82-.444-.317-.602-.498-.602-.709 0-.06.218-.399.482-.753.263-.354.647-.919.843-1.258l.37-.61.338.046c.685.098.866.09.844-.06-.015-.076-.143-.294-.287-.475-.143-.188-.256-.377-.256-.414 0-.143.7-1.461.927-1.74.196-.241.354-.362.354-.256Zm-4.707.602c.376.249 1.792 1.476 1.882 1.627.038.068-1.415 2.342-1.702 2.666-.03.038-.188-.037-.346-.158a24.697 24.697 0 0 0-1.31-.904l-1.017-.67.61-1.032c1.084-1.815 1.062-1.785 1.295-1.785.12 0 .384.113.588.256Zm2.854.271c-.264.324-.482.528-.572.528-.196 0-.513-.174-1.047-.565l-.445-.324.89-.053a17.57 17.57 0 0 0 1.03-.068c.603-.097.603-.09.144.483Zm-5.694 3.623c.693.271 1.868.911 2.207 1.198.241.195.241.21.143.451a7.58 7.58 0 0 1-.467.806 13.73 13.73 0 0 0-.505.836c-.24.467-.316.505-.813.37-.535-.159-.82-.43-.971-.92-.204-.685-.528-2.62-.49-2.922.015-.113.331-.045.896.181Z" fill="#000"/></g><defs><filter id="a" x="-4" y="0" width="58" height="58" filterUnits="userSpaceOnUse" color-interpolation-filters="sRGB"><feFlood flood-opacity="0" result="BackgroundImageFix"/><feColorMatrix in="SourceAlpha" values="0 0 0 0 0 0 0 0 0 0 0 0 0 0 0 0 0 0 127 0" result="hardAlpha"/><feOffset dy="4"/><feGaussianBlur stdDeviation="2"/><feComposite in2="hardAlpha" operator="out"/><feColorMatrix values="0 0 0 0 0 0 0 0 0 0 0 0 0 0 0 0 0 0 0.25 0"/><feBlend in2="BackgroundImageFix" result="effect1_dropShadow_11713_4655"/><feBlend in="SourceGraphic" in2="effect1_dropShadow_11713_4655" result="shape"/></filter></defs></svg>
